X:1
T:Title
%%score 1 ( 2 3 )
L:1/8
Q:1/4=100
M:4/4
K:C
V:1 treble nm="Strings 1, Treble"
V:2 bass nm="Strings 1, Bass"
V:3 bass 
V:1
 [EG]>[_E^F] [=EG]>[=FA] [DF]>[^CE] [DF]>[EG] | [CE]4 [B,D]4 | C>B, C>[CE] [CF]>[CE] [CD]>C | %3
w: 1.~As~ you~ jour ney~ day~ by~ day~ with~|Je sus,~|You~ will~ meet~ with~ prob lems~ hard~ to~|
 [B,D]6 z2 | [EG]>[_E^F] [=EG]>[=FA] [DF]>[^CE] [DF]>[EG] | [CE]4 [B,D]4 | %6
w: face;~|If~ you~ stuck,~ just~ ask~ your~ Friend~ to~|help~ you,~|
 [D^F]>[DF] [DF]>[DF] [DF]>D [DE]>[DF] | [DG]6 z2 | [FA]>[FA] [FA]>[GB] [Ac]>[Ac] [GB]>[FA] | %9
w: He~ will~ give~ you~ prob lem solv ing~|grace.~||
 [EG]4 [CE]4 | [FA]>[FA] [FA]>[EB] [Dc]>[Dc] [EB]>[FA] | [GB]6 z2 | %12
w: |||
 [Cc]>[CG] [CE]>[CD] C>C [CD]>[CE] | [CF]4 [FA]4 | [EG]>[EG] [GB]>[GA] G>F E>D | C6 z2 |] %16
w: ||||
V:2
 [C,C]>[C,C] [C,C]>[C,C] [G,B,]>[G,B,] [G,B,]>[G,B,] | [C,C]4 [B,,G,]4 | %2
 [A,,A,]>[A,,A,] [A,,A,]>[A,,A,] [A,,A,]>[A,,A,] [A,,A,]>[A,,A,] | [G,,G,]6 z2 | %4
 [C,C]>[C,C] [C,C]>[C,C] [G,B,]>[G,B,] [G,B,]>[G,B,] | [C,C]4 [D,G,]4 | %6
 [D,D]>[D,D] [^F,D]>[E,D] [D,D]>[C,C] [B,,B,]>[A,,A,] | [G,,G,]6 z2 | %8
 [F,C]>[F,C] [F,C]>[F,C] [F,C]>[F,C] [G,B,]>[F,A,] | [C,C]4 G,2- [B,,G,]2 | %10
 [A,,C]>[A,,C] [A,,C]>[A,,B,] [D,A,]>[D,A,] [D,B,]>[D,C] | [G,,D]6 z2 | %12
 [C,C]>[C,C] [C,C]>[C,C] [C,C]>[C,C] [C,C]>[C,C] | [F,A,]4 [F,C]4 | %14
 [G,C]>[G,C] [G,B,]>[G,A,] [G,,G,]>[G,,G,] [A,,A,]>[B,,B,] | [C,C]6 z2 |] %16
V:3
 x8 | x8 | x8 | x8 | x8 | x8 | x8 | x8 | x8 | z4 C,2 z2 | x8 | x8 | x8 | x8 | x8 | x8 |] %16

